packages/core/src/svgs/adx.svg

<svg width="24" height="24" viewBox="0 0 24 24" fill="none" xmlns="http://www.w3.org/2000/svg">
<g clip-path="url(#clip0_31_5643)">
<path d="M0 0H24V24H0V0Z" fill="#1B75BC"/>
<path d="M8.76004 6.71457L12 10L15.159 6.71457L17.1429 8.686L13.9102 12.0001L17.1429 15.286L15.159 17.2857L12 14.0003L8.76004 17.2857L6.85718 15.343L10.0603 11.986L6.85718 8.67871L8.76004 6.70728V6.71457ZM9.01718 6.45014L11.9855 3.42871L14.9533 6.45014L13.3959 8.06457L11.9855 6.55728L10.5819 8.06457L9.01718 6.45014ZM9.01718 17.5501L10.5819 15.9357L11.9855 17.443L13.3959 15.9357L14.9533 17.5501L11.9855 20.5716L9.01718 17.5501Z" fill="white"/>
</g>
<defs>
<clipPath id="clip0_31_5643">
<rect width="24" height="24" fill="white"/>
</clipPath>
</defs>
</svg>

<svg xmlns="http://www.w3.org/2000/svg" width="24" height="24" fill="none" viewBox="0 0 24 24"><g clip-path="url(#a)"><path fill="#1B75BC" d="M0 0h24v24H0z"/><path fill="#fff" d="M8.76 6.715 12 10l3.159-3.285 1.984 1.971L13.91 12l3.233 3.286-1.984 2L12 14l-3.24 3.286-1.903-1.943 3.203-3.357-3.203-3.307L8.76 6.707zm.257-.265 2.969-3.021 2.967 3.021-1.557 1.615-1.41-1.508-1.404 1.508zm0 11.1 1.565-1.614 1.403 1.507 1.41-1.507 1.558 1.614-2.967 3.022z"/></g><defs><clipPath id="a"><path fill="#fff" d="M0 0h24v24H0z"/></clipPath></defs></svg>
